src/22x22/places/folder-gruvbox-mix-orange-steam.svg

<?xml version="1.0" encoding="UTF-8"?>
<svg width="22" height="22" version="1" xmlns="http://www.w3.org/2000/svg">
 <rect x="1" y="8.5" width="20" height="12" rx="1" ry="1" opacity=".2"/>
 <path d="m1 16c0 0.554 0.446 1 1 1h18c0.554 0 1-0.446 1-1v-11c0-0.554-0.446-1-1-1h-9c-1.5 0-2-2-3.5-2h-5.5c-0.554 0-1 0.446-1 1" fill="#b94c07"/>
 <rect x="1" y="7.5" width="20" height="12" rx="1" ry="1" opacity=".2"/>
 <rect x="3" y="6" width="16" height="8" rx="1" ry="1" fill="#F6E0B4"/>
 <rect x="1" y="8" width="20" height="12" rx="1" ry="1" fill="#f28534"/>
 <path d="m2 2c-0.554 0-1 0.446-1 1v0.5c0-0.554 0.446-1 1-1h5.5c1.5 0 2 2 3.5 2h9c0.554 0 1 0.446 1 1v-0.5c0-0.554-0.446-1-1-1h-9c-1.5 0-2-2-3.5-2z" fill="#F6E0B4" opacity=".1"/>
 <path d="m4 14.255 3.0507 1.761c-0.0326 0.159-0.0496 0.321-0.0508 0.484 0 1.381 1.1193 2.5 2.5001 2.5 1.381 0 2.5-1.119 2.5-2.5-1e-3 -0.105-8e-3 -0.21-0.022-0.314l2.598-2.219c0.14 0.021 0.282 0.032 0.424 0.033 1.657 0 3-1.343 3-3s-1.343-3-3-3c-1.566 4e-4 -2.868 1.205-2.99 2.766l-2.098 3.269c-0.136-0.023-0.274-0.035-0.412-0.035-0.459 1e-3 -0.9094 0.129-1.3009 0.369l-4.1991-2.424m11-2.945c1.105 0 2 0.895 2 2s-0.895 2-2 2-2-0.895-2-2 0.895-2 2-2zm0 1c-0.552 0-1 0.448-1 1s0.448 1 1 1 1-0.448 1-1-0.448-1-1-1zm-5.539 5h0.039c0.828 0 1.5 0.672 1.5 1.5s-0.672 1.5-1.5 1.5c-0.8026 0-1.4629-0.632-1.4982-1.434l0.4981 0.288c0.4955 0.286 1.1171 0.13 1.3941-0.35s0.101-1.097-0.394-1.383l-0.188-0.107c0.049-7e-3 0.099-0.012 0.149-0.014z" fill="#4E3B30"/>
</svg>

<svg xmlns="http://www.w3.org/2000/svg" width="22" height="22" version="1">
 <rect style="opacity:0.2" width="20" height="12" x="1" y="8.5" rx="1" ry="1"/>
 <path style="fill:#b94c07" d="M 1,16 C 1,16.554 1.446,17 2,17 H 20 C 20.554,17 21,16.554 21,16 V 5 C 21,4.446 20.554,4 20,4 H 11 C 9.5,4 9,2 7.5,2 H 2 C 1.446,2 1,2.446 1,3"/>
 <rect style="opacity:0.2" width="20" height="12" x="1" y="7.5" rx="1" ry="1"/>
 <rect style="fill:#F6E0B4" width="16" height="8" x="3" y="6" rx="1" ry="1"/>
 <rect style="fill:#f28534" width="20" height="12" x="1" y="8" rx="1" ry="1"/>
 <path style="opacity:0.1;fill:#F6E0B4" d="M 2,2 C 1.446,2 1,2.446 1,3 V 3.5 C 1,2.946 1.446,2.5 2,2.5 H 7.5 C 9,2.5 9.5,4.5 11,4.5 H 20 C 20.554,4.5 21,4.946 21,5.5 V 5 C 21,4.446 20.554,4 20,4 H 11 C 9.5,4 9,2 7.5,2 Z"/>
 <path style="fill:#4E3B30" d="M 4,14.255 7.0507,16.016 C 7.0181,16.175 7.0011,16.337 6.9999,16.5 6.9999,17.881 8.1192,19 9.5,19 10.881,19 12,17.881 12,16.5 11.999,16.395 11.992,16.29 11.978,16.186 L 14.576,13.967 C 14.716,13.988 14.858,13.999 15,14 16.657,14 18,12.657 18,11 18,9.343 16.657,8 15,8 13.434,8.0004 12.132,9.205 12.01,10.766 L 9.912,14.035 C 9.776,14.012 9.638,14 9.5,14 9.041,14.001 8.5906,14.129 8.1991,14.369 L 4,11.945 M 15,9 C 16.105,9 17,9.895 17,11 17,12.105 16.105,13 15,13 13.895,13 13,12.105 13,11 13,9.895 13.895,9 15,9 Z M 15,10 C 14.448,10 14,10.448 14,11 14,11.552 14.448,12 15,12 15.552,12 16,11.552 16,11 16,10.448 15.552,10 15,10 Z M 9.461,15 C 9.474,15 9.487,15 9.5,15 10.328,15 11,15.672 11,16.5 11,17.328 10.328,18 9.5,18 8.6974,18 8.0371,17.368 8.0018,16.566 L 8.4999,16.854 C 8.9954,17.14 9.617,16.984 9.894,16.504 10.171,16.024 9.995,15.407 9.5,15.121 L 9.312,15.014 C 9.361,15.007 9.411,15.002 9.461,15 Z"/>
</svg>
